X: 1
%
T: Four Posts Of The Bed [2], The
M: 6/8
L: 1/8
R: jig
Z:http://www.thesession.org/tunes/display/1718
K: Amix
e2d|:cAA AcA|EAA A2B|c2c AcA|~e3 fed|
cAA AcA|EAA ABc|d2B G2B|d3 e2d:|
|:=c2d ede|gag ged|=c2d ede|
[1~g3 e2d|=c2d ede|gag gfe|~d3 d2e|=f3 e2d:|
[2~g3 g2a|bgg gag|~g3 gfe|~d3 d2e|=f3 e2d||

